icons/cloud-offline-24.svg

<svg width="24" height="24" viewBox="0 0 24 24" fill="none" xmlns="http://www.w3.org/2000/svg">
<path fill-rule="evenodd" clip-rule="evenodd" d="M2.78033 2.21967C2.48744 1.92678 2.01256 1.92678 1.71967 2.21967C1.42678 2.51256 1.42678 2.98744 1.71967 3.28033L4.36145 5.92211C3.56437 7.12049 3.10345 8.55799 3.10345 10.1071C3.10345 10.2203 3.10621 10.348 3.11237 10.4788C1.27705 11.2066 0 12.9646 0 15.0595C0 17.8305 2.229 20 5.01724 20H17.431C17.7183 20 18.0013 19.9823 18.2791 19.9478C18.311 19.9439 18.3428 19.9397 18.3746 19.9353L21.2197 22.7803C21.5126 23.0732 21.9874 23.0732 22.2803 22.7803C22.5732 22.4874 22.5732 22.0126 22.2803 21.7197L2.78033 2.21967ZM16.9393 18.5L5.44884 7.0095C4.91099 7.91365 4.60345 8.97023 4.60345 10.1071C4.60345 10.3914 4.62495 10.7092 4.65457 10.8625C4.72998 11.2528 4.48781 11.6341 4.10252 11.7318C2.5838 12.1168 1.5 13.4443 1.5 15.0595C1.5 16.9765 3.03164 18.5 5.01724 18.5H16.9393Z" fill="#24292F"/>
<path d="M10.8362 2.5C9.52051 2.5 8.2823 2.81655 7.19819 3.38014C6.83067 3.5712 6.68763 4.02402 6.87869 4.39153C7.06975 4.75905 7.52256 4.9021 7.89008 4.71104C8.76222 4.25764 9.76332 4 10.8362 4C13.4243 4 15.6056 5.50036 16.5563 7.65471L16.7348 8.10031C16.8488 8.38487 17.1245 8.57143 17.431 8.57143C20.2736 8.57143 22.5 10.7772 22.5 13.5357C22.5 15.0262 21.8533 16.3469 20.8163 17.2515C20.5042 17.5237 20.4719 17.9975 20.7441 18.3097C21.0164 18.6218 21.4902 18.6541 21.8023 18.3818C23.1547 17.2021 24 15.4742 24 13.5357C24 10.0951 21.3478 7.34453 17.9462 7.09057L17.9441 7.08527C17.9411 7.0777 17.9379 7.07018 17.9346 7.06271C16.7477 4.35842 14.0251 2.5 10.8362 2.5Z" fill="#24292F"/>
</svg>

<svg xmlns="http://www.w3.org/2000/svg" width="24" height="24" viewBox="0 0 24 24"><path fill-rule="evenodd" d="M2.78 2.22a.75.75 0 00-1.06 1.06l2.64 2.642a7.525 7.525 0 00-1.249 4.557A4.9 4.9 0 000 15.059C0 17.831 2.229 20 5.017 20h12.414a6.879 6.879 0 00.944-.065l2.845 2.845a.75.75 0 101.06-1.06L2.78 2.22zM16.94 18.5L5.448 7.01a6.03 6.03 0 00-.794 3.853.75.75 0 01-.552.869c-1.52.385-2.603 1.712-2.603 3.328 0 1.917 1.532 3.44 3.517 3.44H16.94z"/><path d="M10.836 2.5a7.865 7.865 0 00-3.638.88.75.75 0 10.692 1.331A6.365 6.365 0 0110.836 4c2.588 0 4.77 1.5 5.72 3.655l.179.445a.75.75 0 00.696.471c2.843 0 5.069 2.206 5.069 4.965a4.9 4.9 0 01-1.684 3.716.75.75 0 00.986 1.13A6.396 6.396 0 0024 13.536c0-3.44-2.652-6.191-6.054-6.445l-.002-.006a.634.634 0 00-.01-.022C16.749 4.358 14.026 2.5 10.837 2.5z"/></svg>
